icons/calendar-a-dots.svg

<svg xmlns="http://www.w3.org/2000/svg" fill="none" viewBox="0 0 24 24">
  <path fill="#fff" d="M0 0h24v24H0z"/>
  <path stroke="#000" stroke-miterlimit="10" stroke-width="1.5" d="M4 17V9c0-2.2 1.8-4 4-4h8c2.2 0 4 1.8 4 4v8c0 2.2-1.8 4-4 4H8c-2.3 0-4-1.8-4-4Z"/>
  <path stroke="#000" stroke-linecap="round" stroke-miterlimit="10" stroke-width="1.5" d="M8 7V3m8 4V3m4 7H4"/>
  <path stroke="#000" stroke-miterlimit="10" stroke-width="1.5" d="M9 16c.82843 0 1.5-.6716 1.5-1.5S9.82843 13 9 13s-1.5.6716-1.5 1.5S8.17157 16 9 16Zm6 0c.8284 0 1.5-.6716 1.5-1.5S15.8284 13 15 13s-1.5.6716-1.5 1.5.6716 1.5 1.5 1.5Z"/>
</svg>

<svg width="24" height="24" viewBox="0 0 24 24" fill="none" xmlns="http://www.w3.org/2000/svg">
<rect width="24" height="24" fill="white"/>
<path d="M4 17V9C4 6.8 5.8 5 8 5H16C18.2 5 20 6.8 20 9V17C20 19.2 18.2 21 16 21H8C5.7 21 4 19.2 4 17Z" stroke="black" stroke-width="1.5" stroke-miterlimit="10"/>
<path d="M8 7V3" stroke="black" stroke-width="1.5" stroke-miterlimit="10" stroke-linecap="round"/>
<path d="M16 7V3" stroke="black" stroke-width="1.5" stroke-miterlimit="10" stroke-linecap="round"/>
<path d="M20 10H4" stroke="black" stroke-width="1.5" stroke-miterlimit="10" stroke-linecap="round"/>
<path d="M9 16C9.82843 16 10.5 15.3284 10.5 14.5C10.5 13.6716 9.82843 13 9 13C8.17157 13 7.5 13.6716 7.5 14.5C7.5 15.3284 8.17157 16 9 16Z" stroke="black" stroke-width="1.5" stroke-miterlimit="10"/>
<path d="M15 16C15.8284 16 16.5 15.3284 16.5 14.5C16.5 13.6716 15.8284 13 15 13C14.1716 13 13.5 13.6716 13.5 14.5C13.5 15.3284 14.1716 16 15 16Z" stroke="black" stroke-width="1.5" stroke-miterlimit="10"/>
</svg>
